images/50273088.svg

<?xml version="1.0" encoding="UTF-8"?>
<svg xmlns="http://www.w3.org/2000/svg" xmlns:xlink="http://www.w3.org/1999/xlink" width="300pt" height="300pt" viewBox="0 0 300 300" version="1.1">
<defs>
<g>
<symbol overflow="visible" id="glyph0-0">
<path style="stroke:none;" d="M 0.640625 2.296875 L 0.640625 -9.171875 L 7.140625 -9.171875 L 7.140625 2.296875 Z M 1.375 1.578125 L 6.421875 1.578125 L 6.421875 -8.4375 L 1.375 -8.4375 Z M 1.375 1.578125 "/>
</symbol>
<symbol overflow="visible" id="glyph0-1">
<path style="stroke:none;" d="M 1.28125 -9.484375 L 3 -9.484375 L 7.203125 -1.546875 L 7.203125 -9.484375 L 8.453125 -9.484375 L 8.453125 0 L 6.71875 0 L 2.515625 -7.921875 L 2.515625 0 L 1.28125 0 Z M 1.28125 -9.484375 "/>
</symbol>
</g>
</defs>
<g id="surface17109">
<rect x="0" y="0" width="300" height="300" style="fill:rgb(100%,100%,100%);fill-opacity:1;stroke:none;"/>
<path style="fill:none;stroke-width:1.2;stroke-linecap:butt;stroke-linejoin:miter;stroke:rgb(0%,0%,100%);stroke-opacity:1;stroke-miterlimit:10;" d="M 238.179688 143.363281 L 251.464844 153.898438 "/>
<path style="fill:none;stroke-width:1.2;stroke-linecap:butt;stroke-linejoin:miter;stroke:rgb(0%,0%,0%);stroke-opacity:1;stroke-miterlimit:10;" d="M 251.464844 153.898438 L 264.75 164.4375 "/>
<path style="fill:none;stroke-width:1.2;stroke-linecap:butt;stroke-linejoin:miter;stroke:rgb(0%,0%,100%);stroke-opacity:1;stroke-miterlimit:10;" d="M 235.878906 151.722656 L 246.507812 160.152344 "/>
<path style="fill:none;stroke-width:1.2;stroke-linecap:butt;stroke-linejoin:miter;stroke:rgb(0%,0%,0%);stroke-opacity:1;stroke-miterlimit:10;" d="M 246.507812 160.152344 L 257.132812 168.582031 "/>
<path style="fill:none;stroke-width:1.2;stroke-linecap:butt;stroke-linejoin:miter;stroke:rgb(0%,0%,0%);stroke-opacity:1;stroke-miterlimit:10;" d="M 206.644531 155.835938 L 222.410156 149.597656 "/>
<path style="fill:none;stroke-width:1.2;stroke-linecap:butt;stroke-linejoin:miter;stroke:rgb(0%,0%,100%);stroke-opacity:1;stroke-miterlimit:10;" d="M 222.410156 149.597656 L 238.179688 143.363281 "/>
<path style=" stroke:none;fill-rule:nonzero;fill:rgb(100%,100%,100%);fill-opacity:1;" d="M 233.179688 135.363281 L 243.179688 135.363281 L 243.179688 151.363281 L 233.179688 151.363281 Z M 233.179688 135.363281 "/>
<g style="fill:rgb(0%,0%,100%);fill-opacity:1;">
  <use xlink:href="#glyph0-1" x="233.179688" y="147.739258"/>
</g>
<path style="fill:none;stroke-width:1.2;stroke-linecap:butt;stroke-linejoin:miter;stroke:rgb(0%,0%,0%);stroke-opacity:1;stroke-miterlimit:10;" d="M 264.75 164.4375 L 259.78125 197.984375 "/>
<path style="fill:none;stroke-width:1.2;stroke-linecap:butt;stroke-linejoin:miter;stroke:rgb(0%,0%,0%);stroke-opacity:1;stroke-miterlimit:10;" d="M 259.78125 197.984375 L 228.246094 210.457031 "/>
<path style="fill:none;stroke-width:1.2;stroke-linecap:butt;stroke-linejoin:miter;stroke:rgb(0%,0%,0%);stroke-opacity:1;stroke-miterlimit:10;" d="M 253.695312 191.8125 L 228.464844 201.789062 "/>
<path style="fill:none;stroke-width:1.2;stroke-linecap:butt;stroke-linejoin:miter;stroke:rgb(0%,0%,0%);stroke-opacity:1;stroke-miterlimit:10;" d="M 228.246094 210.457031 L 201.675781 189.382812 "/>
<path style="fill:none;stroke-width:1.2;stroke-linecap:butt;stroke-linejoin:miter;stroke:rgb(0%,0%,0%);stroke-opacity:1;stroke-miterlimit:10;" d="M 201.675781 189.382812 L 206.644531 155.835938 "/>
<path style="fill:none;stroke-width:1.2;stroke-linecap:butt;stroke-linejoin:miter;stroke:rgb(0%,0%,0%);stroke-opacity:1;stroke-miterlimit:10;" d="M 210.066406 187.195312 L 214.039062 160.359375 "/>
<path style="fill:none;stroke-width:1.2;stroke-linecap:butt;stroke-linejoin:miter;stroke:rgb(0%,0%,0%);stroke-opacity:1;stroke-miterlimit:10;" d="M 206.644531 155.835938 L 180.074219 134.757812 "/>
<path style="fill:none;stroke-width:1.2;stroke-linecap:butt;stroke-linejoin:miter;stroke:rgb(0%,0%,0%);stroke-opacity:1;stroke-miterlimit:10;" d="M 180.074219 134.757812 L 180.789062 117.816406 "/>
<path style="fill:none;stroke-width:1.2;stroke-linecap:butt;stroke-linejoin:miter;stroke:rgb(0%,0%,100%);stroke-opacity:1;stroke-miterlimit:10;" d="M 180.789062 117.816406 L 181.507812 100.875 "/>
<path style="fill:none;stroke-width:1.2;stroke-linecap:butt;stroke-linejoin:miter;stroke:rgb(0%,0%,0%);stroke-opacity:1;stroke-miterlimit:10;" d="M 172.246094 131.035156 L 172.816406 117.480469 "/>
<path style="fill:none;stroke-width:1.2;stroke-linecap:butt;stroke-linejoin:miter;stroke:rgb(0%,0%,100%);stroke-opacity:1;stroke-miterlimit:10;" d="M 172.816406 117.480469 L 173.390625 103.925781 "/>
<path style="fill:none;stroke-width:1.2;stroke-linecap:butt;stroke-linejoin:miter;stroke:rgb(0%,0%,0%);stroke-opacity:1;stroke-miterlimit:10;" d="M 147.40625 143.867188 L 180.074219 134.757812 "/>
<path style="fill:none;stroke-width:1.2;stroke-linecap:butt;stroke-linejoin:miter;stroke:rgb(0%,0%,100%);stroke-opacity:1;stroke-miterlimit:10;" d="M 181.507812 100.875 L 149.726562 89.042969 "/>
<path style=" stroke:none;fill-rule:nonzero;fill:rgb(100%,100%,100%);fill-opacity:1;" d="M 176.507812 92.875 L 186.507812 92.875 L 186.507812 108.875 L 176.507812 108.875 Z M 176.507812 92.875 "/>
<g style="fill:rgb(0%,0%,100%);fill-opacity:1;">
  <use xlink:href="#glyph0-1" x="176.507812" y="105.250977"/>
</g>
<path style="fill:none;stroke-width:1.2;stroke-linecap:butt;stroke-linejoin:miter;stroke:rgb(0%,0%,100%);stroke-opacity:1;stroke-miterlimit:10;" d="M 149.726562 89.042969 L 139.1875 102.328125 "/>
<path style="fill:none;stroke-width:1.2;stroke-linecap:butt;stroke-linejoin:miter;stroke:rgb(0%,0%,0%);stroke-opacity:1;stroke-miterlimit:10;" d="M 139.1875 102.328125 L 128.648438 115.613281 "/>
<path style="fill:none;stroke-width:1.2;stroke-linecap:butt;stroke-linejoin:miter;stroke:rgb(0%,0%,0%);stroke-opacity:1;stroke-miterlimit:10;" d="M 130.96875 60.789062 L 140.347656 74.914062 "/>
<path style="fill:none;stroke-width:1.2;stroke-linecap:butt;stroke-linejoin:miter;stroke:rgb(0%,0%,100%);stroke-opacity:1;stroke-miterlimit:10;" d="M 140.347656 74.914062 L 149.726562 89.042969 "/>
<path style=" stroke:none;fill-rule:nonzero;fill:rgb(100%,100%,100%);fill-opacity:1;" d="M 144.726562 81.042969 L 154.726562 81.042969 L 154.726562 97.042969 L 144.726562 97.042969 Z M 144.726562 81.042969 "/>
<g style="fill:rgb(0%,0%,100%);fill-opacity:1;">
  <use xlink:href="#glyph0-1" x="144.726562" y="93.418945"/>
</g>
<path style="fill:none;stroke-width:1.2;stroke-linecap:butt;stroke-linejoin:miter;stroke:rgb(0%,0%,0%);stroke-opacity:1;stroke-miterlimit:10;" d="M 128.648438 115.613281 L 96.867188 103.777344 "/>
<path style="fill:none;stroke-width:1.2;stroke-linecap:butt;stroke-linejoin:miter;stroke:rgb(0%,0%,0%);stroke-opacity:1;stroke-miterlimit:10;" d="M 128.648438 115.613281 L 147.40625 143.867188 "/>
<path style="fill:none;stroke-width:1.2;stroke-linecap:butt;stroke-linejoin:miter;stroke:rgb(0%,0%,0%);stroke-opacity:1;stroke-miterlimit:10;" d="M 137.171875 114.023438 L 152.179688 136.628906 "/>
<path style="fill:none;stroke-width:1.2;stroke-linecap:butt;stroke-linejoin:miter;stroke:rgb(0%,0%,0%);stroke-opacity:1;stroke-miterlimit:10;" d="M 96.867188 103.777344 L 98.300781 69.894531 "/>
<path style="fill:none;stroke-width:1.2;stroke-linecap:butt;stroke-linejoin:miter;stroke:rgb(0%,0%,0%);stroke-opacity:1;stroke-miterlimit:10;" d="M 98.300781 69.894531 L 130.96875 60.789062 "/>
<path style="fill:none;stroke-width:1.2;stroke-linecap:butt;stroke-linejoin:miter;stroke:rgb(0%,0%,0%);stroke-opacity:1;stroke-miterlimit:10;" d="M 147.40625 143.867188 L 135.574219 175.648438 "/>
<path style="fill:none;stroke-width:1.2;stroke-linecap:butt;stroke-linejoin:miter;stroke:rgb(0%,0%,0%);stroke-opacity:1;stroke-miterlimit:10;" d="M 135.574219 175.648438 L 102.132812 181.292969 "/>
<path style="fill:none;stroke-width:1.2;stroke-linecap:butt;stroke-linejoin:miter;stroke:rgb(0%,0%,0%);stroke-opacity:1;stroke-miterlimit:10;" d="M 133.554688 184.082031 L 106.804688 188.59375 "/>
<path style="fill:none;stroke-width:1.2;stroke-linecap:butt;stroke-linejoin:miter;stroke:rgb(0%,0%,0%);stroke-opacity:1;stroke-miterlimit:10;" d="M 157.179688 201.789062 L 135.574219 175.648438 "/>
<path style="fill:none;stroke-width:1.2;stroke-linecap:butt;stroke-linejoin:miter;stroke:rgb(0%,0%,0%);stroke-opacity:1;stroke-miterlimit:10;" d="M 102.132812 181.292969 L 90.296875 213.074219 "/>
<path style="fill:none;stroke-width:1.2;stroke-linecap:butt;stroke-linejoin:miter;stroke:rgb(0%,0%,0%);stroke-opacity:1;stroke-miterlimit:10;" d="M 80.523438 155.152344 L 102.132812 181.292969 "/>
<path style="fill:none;stroke-width:1.2;stroke-linecap:butt;stroke-linejoin:miter;stroke:rgb(0%,0%,0%);stroke-opacity:1;stroke-miterlimit:10;" d="M 90.296875 213.074219 L 101.101562 226.144531 "/>
<path style="fill:none;stroke-width:1.2;stroke-linecap:butt;stroke-linejoin:miter;stroke:rgb(0%,0%,100%);stroke-opacity:1;stroke-miterlimit:10;" d="M 101.101562 226.144531 L 111.90625 239.210938 "/>
<path style="fill:none;stroke-width:1.2;stroke-linecap:butt;stroke-linejoin:miter;stroke:rgb(0%,0%,0%);stroke-opacity:1;stroke-miterlimit:10;" d="M 98.609375 210.601562 L 107.253906 221.058594 "/>
<path style="fill:none;stroke-width:1.2;stroke-linecap:butt;stroke-linejoin:miter;stroke:rgb(0%,0%,100%);stroke-opacity:1;stroke-miterlimit:10;" d="M 107.253906 221.058594 L 115.894531 231.515625 "/>
<path style="fill:none;stroke-width:1.2;stroke-linecap:butt;stroke-linejoin:miter;stroke:rgb(0%,0%,0%);stroke-opacity:1;stroke-miterlimit:10;" d="M 90.296875 213.074219 L 56.855469 218.714844 "/>
<path style="fill:none;stroke-width:1.2;stroke-linecap:butt;stroke-linejoin:miter;stroke:rgb(0%,0%,100%);stroke-opacity:1;stroke-miterlimit:10;" d="M 111.90625 239.210938 L 128.625 236.390625 "/>
<path style="fill:none;stroke-width:1.2;stroke-linecap:butt;stroke-linejoin:miter;stroke:rgb(0%,0%,0%);stroke-opacity:1;stroke-miterlimit:10;" d="M 128.625 236.390625 L 145.347656 233.570312 "/>
<path style=" stroke:none;fill-rule:nonzero;fill:rgb(100%,100%,100%);fill-opacity:1;" d="M 106.90625 231.210938 L 116.90625 231.210938 L 116.90625 247.210938 L 106.90625 247.210938 Z M 106.90625 231.210938 "/>
<g style="fill:rgb(0%,0%,100%);fill-opacity:1;">
  <use xlink:href="#glyph0-1" x="106.90625" y="243.586914"/>
</g>
<path style="fill:none;stroke-width:1.2;stroke-linecap:butt;stroke-linejoin:miter;stroke:rgb(0%,0%,0%);stroke-opacity:1;stroke-miterlimit:10;" d="M 145.347656 233.570312 L 157.179688 201.789062 "/>
<path style="fill:none;stroke-width:1.2;stroke-linecap:butt;stroke-linejoin:miter;stroke:rgb(0%,0%,0%);stroke-opacity:1;stroke-miterlimit:10;" d="M 139.050781 227.605469 L 148.519531 202.179688 "/>
<path style="fill:none;stroke-width:1.2;stroke-linecap:butt;stroke-linejoin:miter;stroke:rgb(0%,0%,0%);stroke-opacity:1;stroke-miterlimit:10;" d="M 56.855469 218.714844 L 35.25 192.578125 "/>
<path style="fill:none;stroke-width:1.2;stroke-linecap:butt;stroke-linejoin:miter;stroke:rgb(0%,0%,0%);stroke-opacity:1;stroke-miterlimit:10;" d="M 60.847656 211.019531 L 43.5625 190.105469 "/>
<path style="fill:none;stroke-width:1.2;stroke-linecap:butt;stroke-linejoin:miter;stroke:rgb(0%,0%,0%);stroke-opacity:1;stroke-miterlimit:10;" d="M 35.25 192.578125 L 47.082031 160.796875 "/>
<path style="fill:none;stroke-width:1.2;stroke-linecap:butt;stroke-linejoin:miter;stroke:rgb(0%,0%,0%);stroke-opacity:1;stroke-miterlimit:10;" d="M 47.082031 160.796875 L 80.523438 155.152344 "/>
<path style="fill:none;stroke-width:1.2;stroke-linecap:butt;stroke-linejoin:miter;stroke:rgb(0%,0%,0%);stroke-opacity:1;stroke-miterlimit:10;" d="M 51.753906 168.097656 L 78.507812 163.585938 "/>
</g>
</svg>

<svg xmlns="http://www.w3.org/2000/svg" xmlns:xlink="http://www.w3.org/1999/xlink" width="300pt" height="300pt" viewBox="0 0 300 300"><defs><symbol overflow="visible"><path d="M.64 2.297v-11.47h6.5v11.47zm.735-.72h5.047V-8.436H1.375zm0 0"/></symbol><symbol overflow="visible" id="a"><path d="M1.28-9.484H3l4.203 7.937v-7.937h1.25V0H6.72L2.515-7.922V0H1.28zm0 0"/></symbol></defs><g><path fill="#fff" d="M0 0h300v300H0z"/><path d="M238.18 143.363l13.285 10.535" stroke-width="1.2" stroke="#00f" stroke-miterlimit="10" fill="none"/><path d="M251.465 153.898l13.285 10.54" stroke-width="1.2" stroke="#000" stroke-miterlimit="10" fill="none"/><path d="M235.88 151.723l10.628 8.43" stroke-width="1.2" stroke="#00f" stroke-miterlimit="10" fill="none"/><path d="M246.508 160.152l10.625 8.43M206.645 155.836l15.765-6.238" stroke-width="1.2" stroke="#000" stroke-miterlimit="10" fill="none"/><path d="M222.41 149.598l15.77-6.235" stroke-width="1.2" stroke="#00f" stroke-miterlimit="10" fill="none"/><path d="M233.18 135.363h10v16h-10zm0 0" fill="#fff"/><use xlink:href="#a" x="233.18" y="147.739" fill="#00f"/><path d="M264.75 164.438l-4.97 33.546M259.78 197.984l-31.534 12.473M253.695 191.813l-25.23 9.976M228.246 210.457l-26.57-21.074M201.676 189.383l4.97-33.547M210.066 187.195l3.973-26.836M206.645 155.836l-26.57-21.078M180.074 134.758l.715-16.942" stroke-width="1.2" stroke="#000" stroke-miterlimit="10" fill="none"/><path d="M180.79 117.816l.718-16.94" stroke-width="1.2" stroke="#00f" stroke-miterlimit="10" fill="none"/><path d="M172.246 131.035l.57-13.555" stroke-width="1.2" stroke="#000" stroke-miterlimit="10" fill="none"/><path d="M172.816 117.48l.575-13.554" stroke-width="1.2" stroke="#00f" stroke-miterlimit="10" fill="none"/><path d="M147.406 143.867l32.668-9.11" stroke-width="1.2" stroke="#000" stroke-miterlimit="10" fill="none"/><path d="M181.508 100.875l-31.78-11.832" stroke-width="1.2" stroke="#00f" stroke-miterlimit="10" fill="none"/><path d="M176.508 92.875h10v16h-10zm0 0" fill="#fff"/><use xlink:href="#a" x="176.508" y="105.251" fill="#00f"/><path d="M149.727 89.043l-10.54 13.285" stroke-width="1.2" stroke="#00f" stroke-miterlimit="10" fill="none"/><path d="M139.188 102.328l-10.54 13.285M130.97 60.79l9.378 14.124" stroke-width="1.2" stroke="#000" stroke-miterlimit="10" fill="none"/><path d="M140.348 74.914l9.38 14.13" stroke-width="1.2" stroke="#00f" stroke-miterlimit="10" fill="none"/><path d="M144.727 81.043h10v16h-10zm0 0" fill="#fff"/><use xlink:href="#a" x="144.727" y="93.419" fill="#00f"/><path d="M128.648 115.613l-31.78-11.836M128.648 115.613l18.758 28.254M137.172 114.023l15.008 22.606M96.867 103.777L98.3 69.895M98.3 69.895l32.67-9.106M147.406 143.867l-11.832 31.78M135.574 175.648l-33.44 5.645M133.555 184.082l-26.75 4.512M157.18 201.79l-21.606-26.142M102.133 181.293l-11.836 31.78M80.523 155.152l21.61 26.14M90.297 213.074l10.805 13.07" stroke-width="1.2" stroke="#000" stroke-miterlimit="10" fill="none"/><path d="M101.102 226.145l10.804 13.066" stroke-width="1.2" stroke="#00f" stroke-miterlimit="10" fill="none"/><path d="M98.61 210.602l8.644 10.457" stroke-width="1.2" stroke="#000" stroke-miterlimit="10" fill="none"/><path d="M107.254 221.06l8.64 10.456" stroke-width="1.2" stroke="#00f" stroke-miterlimit="10" fill="none"/><path d="M90.297 213.074l-33.442 5.64" stroke-width="1.2" stroke="#000" stroke-miterlimit="10" fill="none"/><path d="M111.906 239.21l16.72-2.82" stroke-width="1.2" stroke="#00f" stroke-miterlimit="10" fill="none"/><path d="M128.625 236.39l16.723-2.82" stroke-width="1.2" stroke="#000" stroke-miterlimit="10" fill="none"/><path d="M106.906 231.21h10v16h-10zm0 0" fill="#fff"/><use xlink:href="#a" x="106.906" y="243.587" fill="#00f"/><path d="M145.348 233.57l11.832-31.78M139.05 227.605l9.47-25.425M56.855 218.715L35.25 192.578M60.848 211.02l-17.285-20.915M35.25 192.578l11.832-31.78M47.082 160.797l33.44-5.645M51.754 168.098l26.754-4.512" stroke-width="1.2" stroke="#000" stroke-miterlimit="10" fill="none"/></g></svg>
